X:436
T:English Passepied,The. (p).1701.PLFD.436
M:3/2
L:1/4
Q:1/2=90
S:Playford, Dancing Master,11th Ed.,1701.
O:England
Z:Chris Partington.
K:G
Gd2c/B/AG|Gdefg2|Aa2g/f/ed|Ad2^cd2:|
|:Be2^deB|Be2^de2|Ad2^cdA|Ad2^cd2|
Gc2BcB/A/|G/A/B/c/ d/e/f/d/gG|gf/e/ d/e/f/d/gG|gf/e/ d/c/B/A/G2:|
